src/icons/radio.svg

<?xml version="1.0" encoding="UTF-8" standalone="no"?>
<svg width="42px" height="82px" viewBox="0 0 42 82" version="1.1" xmlns="http://www.w3.org/2000/svg" xmlns:xlink="http://www.w3.org/1999/xlink" xmlns:sketch="http://www.bohemiancoding.com/sketch/ns">
    <!-- Generator: Sketch 3.4.4 (17249) - http://www.bohemiancoding.com/sketch -->
    <title>radio</title>
    <desc>Created with Sketch.</desc>
    <defs></defs>
    <g id="Page-1" stroke="none" stroke-width="1" fill="none" fill-rule="evenodd" sketch:type="MSPage">
        <g id="radio" sketch:type="MSLayerGroup" fill="#4A4A4A">
            <path d="M17.404,20.4472591 C17.404,19.7402591 17.982,19.1682591 18.695,19.1682591 C19.408,19.1682591 19.988,19.7402591 19.988,20.4472591 L19.988,33.9382591 C20.38,34.2882591 20.633,34.7912591 20.633,35.3562591 L20.633,47.0162591 C23.427,47.7012591 24.554,48.6202591 24.845,48.9062591 C25.211,49.2682591 25.411,49.7502591 25.411,50.2622591 L25.411,69.4322591 L25.415,69.4322591 C25.402,69.5902591 25.427,72.4892591 23.863,75.6132591 C22.378,78.7152591 18.848,81.9982591 12.886,81.9982591 L12.708,81.9982591 C6.636,82.0622591 3.054,78.7472591 1.551,75.6132591 C-0.01,72.4892591 0.012,69.5902591 0,69.4322591 L0,50.2612591 C0,49.7562591 0.204,49.2642591 0.567,48.9052591 C1.047,48.4312591 3.793,46.2112591 12.706,46.2172591 C14.235,46.2162591 15.571,46.2852591 16.757,46.3942591 L16.757,35.3562591 C16.757,34.7902591 17.01,34.2862591 17.404,33.9352591 L17.404,20.4472591 L17.404,20.4472591 Z M12.703,50.0522591 C7.511,50.0522591 4.945,50.8522591 3.874,51.3352591 L3.874,69.4332591 C3.877,69.4332591 3.874,69.5122591 3.89,69.7512591 C3.908,69.9912591 3.942,70.3472591 4.017,70.7802591 C4.16,71.6432591 4.456,72.7972591 5.015,73.8952591 C6.209,76.0872591 8.007,78.0942591 12.707,78.1612591 C16.837,78.1142591 18.676,76.5442591 19.929,74.7112591 C21.142,72.8582591 21.466,70.5932591 21.52,69.7502591 C21.537,69.5112591 21.537,69.4322591 21.534,69.4322591 L21.535,69.4322591 L21.535,51.3352591 C21.323,51.2382591 21.05,51.1302591 20.706,51.0162591 C19.335,50.5632591 16.85,50.0522591 12.703,50.0522591 L12.703,50.0522591 Z M8.207,60.1312591 L17.338,60.1312591 L17.338,62.8652591 L8.207,62.8652591 L8.207,60.1312591 L8.207,60.1312591 Z M8.207,54.6652591 L17.338,54.6652591 L17.338,57.3982591 L8.207,57.3982591 L8.207,54.6652591 L8.207,54.6652591 Z" sketch:type="MSShapeGroup"></path>
            <path d="M28.769,17.5632591 C29.041,18.5462591 29.175,19.5392591 29.172,20.5162591 C29.172,24.1172591 27.377,27.4942591 24.416,29.5452591 C24.191,29.7012591 23.932,29.7752591 23.674,29.7752591 C23.268,29.7752591 22.866,29.5872591 22.615,29.2322591 C22.206,28.6552591 22.347,27.8562591 22.931,27.4522591 C25.205,25.8812591 26.59,23.2732591 26.59,20.5162591 C26.59,19.7612591 26.49,19.0022591 26.278,18.2472591 C25.28,14.6872591 22.127,12.2942591 18.605,12.0572591 L18.608,12.0592591 C17.895,12.0092591 17.355,11.4012591 17.404,10.6982591 C17.453,9.99025908 18.07,9.45825908 18.781,9.50625908 C23.367,9.81525908 27.464,12.9322591 28.769,17.5632591 L28.769,17.5632591 Z" id="Path" sketch:type="MSShapeGroup"></path>
            <path d="M35.098,15.8242591 C35.538,17.3912591 35.748,18.9692591 35.748,20.5192591 C35.746,24.4402591 34.405,28.1872591 32.061,31.2082591 C31.806,31.5382591 31.422,31.7092591 31.033,31.7092591 C30.76,31.7092591 30.484,31.6222591 30.249,31.4452591 C29.68,31.0162591 29.575,30.2142591 30.011,29.6522591 C32.017,27.0672591 33.163,23.8592591 33.163,20.5192591 C33.163,19.1932591 32.985,17.8482591 32.61,16.5062591 C31.281,11.7832591 27.816,8.22725908 23.53,6.56825908 C22.865,6.31225908 22.538,5.56925908 22.795,4.91225908 C23.054,4.25425908 23.804,3.93025908 24.469,4.18625908 C29.482,6.12225908 33.548,10.2982591 35.098,15.8242591 L35.098,15.8242591 Z" id="Path" sketch:type="MSShapeGroup"></path>
            <path d="M39.172,31.6572591 C38.94,32.0902591 38.492,32.3342591 38.029,32.3342591 C37.824,32.3342591 37.618,32.2862591 37.425,32.1842591 C36.795,31.8522591 36.552,31.0802591 36.889,30.4542591 C38.513,27.4342591 39.408,24.0272591 39.405,20.5192591 C39.405,18.6462591 39.154,16.7462591 38.626,14.8592591 C37.094,9.41125908 33.559,5.06725908 29.012,2.37525908 L29.015,2.37525908 C28.401,2.01225908 28.2,1.22925908 28.567,0.624259077 C28.934,0.0172590769 29.73,-0.180740923 30.34,0.180259077 C35.428,3.19425908 39.404,8.07725908 41.114,14.1762591 C41.708,16.2912591 41.99,18.4202591 41.989,20.5192591 C41.989,24.4592591 40.987,28.2722591 39.172,31.6572591 L39.172,31.6572591 Z" id="Path" sketch:type="MSShapeGroup"></path>
        </g>
    </g>
</svg>

<svg class="icon icon-radio" xmlns="http://www.w3.org/2000/svg" width="42" height="82" viewBox="0 0 42 82">
  <title>radio</title>
  <g>
    <path d="M17.4,20.447a1.292,1.292,0,0,1,2.584,0V33.938a1.9,1.9,0,0,1,.645,1.418v11.66a9.223,9.223,0,0,1,4.212,1.89,1.894,1.894,0,0,1,.566,1.356v19.17h0a14.969,14.969,0,0,1-1.552,6.181C22.378,78.715,18.848,82,12.886,82H12.708c-6.072.064-9.654-3.251-11.157-6.385A15,15,0,0,1,0,69.432V50.261a1.914,1.914,0,0,1,.567-1.356c0.48-.474,3.226-2.694,12.139-2.688,1.529,0,2.865.068,4.051,0.177V35.356a1.9,1.9,0,0,1,.647-1.421V20.447h0Zm-4.7,29.6c-5.192,0-7.758.8-8.829,1.283v18.1s0,0.079.016,0.318,0.052,0.6.127,1.029a10.982,10.982,0,0,0,1,3.115c1.194,2.192,2.992,4.2,7.692,4.266,4.13-.047,5.969-1.617,7.222-3.45A11.13,11.13,0,0,0,21.52,69.75a2.433,2.433,0,0,0,.014-0.318h0v-18.1a8.246,8.246,0,0,0-.829-0.319,26.122,26.122,0,0,0-8-.964h0Zm-4.5,10.079h9.131v2.734H8.207V60.131h0Zm0-5.466h9.131V57.4H8.207V54.665h0Z" fill="#4a4a4a"/>
    <path class="icon-radio__signal" d="M28.769,17.563a10.963,10.963,0,0,1-4.353,11.982,1.307,1.307,0,0,1-1.8-.313,1.27,1.27,0,0,1,.316-1.78,8.474,8.474,0,0,0,3.659-6.936,8.364,8.364,0,0,0-.312-2.269,8.549,8.549,0,0,0-7.673-6.19l0,0a1.28,1.28,0,1,1,.173-2.553,11.137,11.137,0,0,1,9.988,8.057h0Z" fill="#4a4a4a"/>
    <path class="icon-radio__signal" d="M35.1,15.824a17.322,17.322,0,0,1-3.037,15.384,1.3,1.3,0,0,1-1.812.237,1.266,1.266,0,0,1-.238-1.793A14.894,14.894,0,0,0,23.53,6.568,1.277,1.277,0,0,1,22.8,4.912a1.3,1.3,0,0,1,1.674-.726A17.564,17.564,0,0,1,35.1,15.824h0Z" fill="#4a4a4a"/>
    <path class="icon-radio__signal" d="M39.172,31.657a1.3,1.3,0,0,1-1.747.527,1.271,1.271,0,0,1-.536-1.73A21.008,21.008,0,0,0,29.012,2.375h0A1.267,1.267,0,0,1,28.567.624,1.3,1.3,0,0,1,30.34.18a23.661,23.661,0,0,1,10.774,14,23.428,23.428,0,0,1-1.942,17.481h0Z" fill="#4a4a4a"/>
  </g>
</svg>
